X:615
T: AUF DIESER WELT HAB ICH KEIN FREUD
N: E0569A
O: Europa, Mitteleuropa, Deutschland, Hessen, Wetterau; Odenwald
R: Liebes - Lied, Trennung
M: 3/4
L: 1/16
K: Bb
F4 | B2AGF4G4 | F2FED2
F2B2c2 | d2f2f4e2f2 | d4z2
B2A2B2 | c3cc2
dcB2c2 | d3dd2
F2B2d2 | f4f4e2f2 | d4z2
B2A2B2 | c3cc2
dcB2c2 | d3dd2
F2B2d2 | f4f4e2f2 | d4z4

@@@ Tune index: 4265
